X: 2046
T: Baym Rebin In Palestina/At the Rabbi In Palestine
B: steve tunes
M:3/8
L:1/8
Q: 3/8=42
K:D
V:1 
|: "D"A,>D F/A/ | ^G A2 | AB (3=c/B/A/ | GF E/D/ | A,>D F/A/ | 
^GA (3=c/B/A/ | ^G A2 | GF E/D/ |  A,>D F/A/ | ^G A2 | AB (3=c/B/A/ |
 GF E/D/ | "A7"E>F G/A/ | F>D E/C/ | "D"D>d A/F/ | D3 :||: d3- | d2 e | "D7"=c3- | c2 d |
 B3- | BA (3=c/B/A/ | ^G A2- | A3 :||:"D" F>D E/F/ | GF E/D/ | F>D E/F/ |
 GF E/D/ | "D" F>D E/F/ | G2 F/E/ | A3-|  A2 G | F>D E/F/ | GF E/D/ | 
F>D E/F/ | GF E/D/ | "A7"E>B A/G/ |  F>D E/C/ | "D"D>d A/F/ | D2) z :| 
% abcbook-tune_id 62a553348653f40b363a0703


% abcbook-boost 0
% abcbook-tablature 
% abcbook-transpose 
% abcbook-lastupdated 1655005807749
% abcbook-soundfonts 
% abcbook-repeats 3
%%scale 0.71
%%pagewidth 21.59cm
%%leftmargin 1.44cm
%%rightmargin 1.44cm

